outputs/icons/hardware/tv_round.svg

<svg xmlns="http://www.w3.org/2000/svg" width="1200" height="1200" fill="none"><g clip-path="url(#a)"><path fill="#000" d="M1050 150H150c-55 0-100 45-100 100v600c0 55 45 100 100 100h250v50c0 27.5 22.5 50 50 50h300c27.5 0 50-22.5 50-50v-50h250c55 0 99.5-45 99.5-100l.5-600c0-55-45-100-100-100m-50 700H200c-27.5 0-50-22.5-50-50V300c0-27.5 22.5-50 50-50h800c27.5 0 50 22.5 50 50v500c0 27.5-22.5 50-50 50"/></g><defs><clipPath id="a"><path fill="#fff" d="M0 0h1200v1200H0z"/></clipPath></defs></svg>

<svg width="1200" height="1200" viewBox="0 0 1200 1200" fill="none" xmlns="http://www.w3.org/2000/svg"><g clip-path="url(#clip0_238_1284)"><path d="M1050 150H150C95 150 50 195 50 250V850C50 905 95 950 150 950H400V1000C400 1027.5 422.5 1050 450 1050H750C777.5 1050 800 1027.5 800 1000V950H1050C1105 950 1149.5 905 1149.5 850L1150 250C1150 195 1105 150 1050 150ZM1000 850H200C172.5 850 150 827.5 150 800V300C150 272.5 172.5 250 200 250H1000C1027.5 250 1050 272.5 1050 300V800C1050 827.5 1027.5 850 1000 850Z" fill="#1D1E23"/></g><defs><clipPath id="clip0_238_1284"><path width="24" fill="white" d="M0 0H1200V1200H0V0z"/></clipPath></defs></svg>
